src/assets/Tick.svg

<svg width="800" height="800" viewBox="0 0 24 24" fill="none" xmlns="http://www.w3.org/2000/svg"><path d="M12 2C6.49 2 2 6.49 2 12s4.49 10 10 10 10-4.49 10-10S17.51 2 12 2Zm4.78 7.7-5.67 5.67a.75.75 0 0 1-1.06 0l-2.83-2.83a.754.754 0 0 1 0-1.06c.29-.29.77-.29 1.06 0l2.3 2.3 5.14-5.14c.29-.29.77-.29 1.06 0 .29.29.29.76 0 1.06Z" fill="#34d399"/></svg>

<!DOCTYPE svg PUBLIC "-//W3C//DTD SVG 1.1//EN" "http://www.w3.org/Graphics/SVG/1.1/DTD/svg11.dtd">
<!-- Uploaded to: SVG Repo, www.svgrepo.com, Transformed by: SVG Repo Mixer Tools -->
<svg width="800px" height="800px" viewBox="0 0 24 24" fill="none" xmlns="http://www.w3.org/2000/svg" stroke="">
<g id="SVGRepo_bgCarrier" stroke-width="0"/>
<g id="SVGRepo_tracerCarrier" stroke-linecap="round" stroke-linejoin="round"/>
<g id="SVGRepo_iconCarrier"> <path d="M12 2C6.49 2 2 6.49 2 12C2 17.51 6.49 22 12 22C17.51 22 22 17.51 22 12C22 6.49 17.51 2 12 2ZM16.78 9.7L11.11 15.37C10.97 15.51 10.78 15.59 10.58 15.59C10.38 15.59 10.19 15.51 10.05 15.37L7.22 12.54C6.93 12.25 6.93 11.77 7.22 11.48C7.51 11.19 7.99 11.19 8.28 11.48L10.58 13.78L15.72 8.64C16.01 8.35 16.49 8.35 16.78 8.64C17.07 8.93 17.07 9.4 16.78 9.7Z" fill="#34d399"/> </g>
</svg>
